src/cmd/32/ar/numberingstart.svg

<svg viewBox="0 0 32 32" xmlns="http://www.w3.org/2000/svg"><path d="m28 14v1h-1v4h1v1h-3v-1h1v-4h-1v-1h1 1z" fill="#762572"/><path d="m28 4v1h-1v4h1v1h-5v-1h1v-4h-1v-1h3 1zm-7 0v1h-17v-1zm5 1h-1v4h1zm-5 2v1h-13v-1zm0 7v1h-17v-1zm0 3v1h-4v-1zm-8 0v1h-9v-1zm8 7v1h-17v-1zm0 3v1h-11v-1zm-13 1v1h-4v-1z" fill="#232629"/></svg>

<?xml version="1.0" encoding="UTF-8" standalone="no"?>
<svg
   xmlns:dc="http://purl.org/dc/elements/1.1/"
   xmlns:cc="http://creativecommons.org/ns#"
   xmlns:rdf="http://www.w3.org/1999/02/22-rdf-syntax-ns#"
   xmlns:svg="http://www.w3.org/2000/svg"
   xmlns="http://www.w3.org/2000/svg"
   xmlns:sodipodi="http://sodipodi.sourceforge.net/DTD/sodipodi-0.dtd"
   xmlns:inkscape="http://www.inkscape.org/namespaces/inkscape"
   viewBox="0 0 32 32"
   version="1.1"
   id="svg6"
   sodipodi:docname="numberingstart.svg"
   inkscape:version="0.92.4 (5da689c313, 2019-01-14)">
  <metadata
     id="metadata12">
    <rdf:RDF>
      <cc:Work
         rdf:about="">
        <dc:format>image/svg+xml</dc:format>
        <dc:type
           rdf:resource="http://purl.org/dc/dcmitype/StillImage" />
      </cc:Work>
    </rdf:RDF>
  </metadata>
  <defs
     id="defs10" />
  <sodipodi:namedview
     pagecolor="#ffffff"
     bordercolor="#666666"
     borderopacity="1"
     objecttolerance="10"
     gridtolerance="10"
     guidetolerance="10"
     inkscape:pageopacity="0"
     inkscape:pageshadow="2"
     inkscape:window-width="1920"
     inkscape:window-height="1011"
     id="namedview8"
     showgrid="true"
     inkscape:zoom="14.75"
     inkscape:cx="1.0639323"
     inkscape:cy="15.651322"
     inkscape:window-x="0"
     inkscape:window-y="32"
     inkscape:window-maximized="1"
     inkscape:current-layer="svg6">
    <inkscape:grid
       type="xygrid"
       id="grid822" />
  </sodipodi:namedview>
  <path
     d="m28 14v1h-1v4h1v1h-3v-1h1v-4h-1v-1h1 1z"
     fill="#762572"
     id="path2" />
  <path
     d="m 28,4 v 1 h -1 v 4 h 1 v 1 H 23 V 9 h 1 V 5 H 23 V 4 h 3 1 z M 21,4 V 5 H 4 V 4 Z m 5,1 h -1 v 4 h 1 z M 21,7 V 8 H 4 V 7 Z m 0,7 v 1 H 4 v -1 z m 0,3 v 1 H 4 v -1 z m 0,7 v 1 H 4 v -1 z m 0,3 v 1 H 4 v -1 z"
     id="path4"
     inkscape:connector-curvature="0"
     style="fill:#232629"
     sodipodi:nodetypes="cccccccccccccccccccccccccccccccccccccccccccccccccc" />
</svg>
